X:1
T:Title
%%score ( 1 2 3 ) { 4 | 5 }
L:1/8
Q:1/4=112
M:4/4
K:E
V:1 treble nm="Grand Piano, Soprano"
V:2 treble 
V:3 treble 
V:4 bass nm="Choir Pad, Trondheim, SM"
V:5 bass 
V:1
 [EG]2 [EG]2 [EG]2 [DB]2 | [DB]2 [Ee]6 | [Ed]2 [Ec]2 [Ec]2 [EB]2 | [FA]2 [FA]4 [EG]2 | z4 B2 z2 | %5
w: By~Arthur~Seymour~Sullivan,~1892 * * *|||||
 B2 z2 B2 z2 | z4 z2 c2- | c z z2 z4 | z4 .G2 z2 | [Ec]2 E4 D2 | [FB]2 [EB]2 GA [EB]2 | %11
w: ||||||
 [Ec]2 F4- [DF]2 | [DB]2 [Ee]2 [Ee]2 [Ed]2 | [Ec]2 [GB]2 [GB][FA] [EG]2 | E2 [Ec]2 [Ec]2 [DB]2 | %15
w: ||||
 [B,D]2 [B,E]6- | [B,E]2 z2 z4 |] %17
w: ||
V:2
 x8 | x8 | x8 | x8 | [GB]2 F2 ED [EG]2 | FE F2 EDG^A | [FB]2 [Fe]2 [Fd]2 E2 | z B [DB]6 | %8
 [DB]2 [EB]2 E-[EA] [EB]2 | z2 F6 | z4 E2 z2 | z2 E4 z2 | x8 | x8 | x8 | x8 | x8 |] %17
V:3
 x8 | x8 | x8 | x8 | x8 | x8 | x8 | E2 z2 z4 | x8 | x8 | x8 | x8 | x8 | x8 | x8 | x8 | x8 |] %17
V:4
 B,2 B,2 B,2 B,2 | B,2 B,6 | B,2 A,2 A,2 G,2 | F,2 B,6 | B,2 B,2 B,2 B,2 | B,2 B,2 B,2 B,2 | %6
 B,2 ^A,2 B,2 B,2 | ^A,2 =A,6 | B,2 B,2 B,2 B,2 | A,G, A,2- A,G, F,2 | A,2 G,2 B,2[K:treble] ED | %11
 C2 B,6 | B,2[K:bass] B,2 B,2 A,2 | A,2 F,2 B,2 B,2 | B,2 A,2 A,G, F,2 | A,2 G,6- | G,2 z2 z4 |] %17
V:5
 E,2 E,2 E,2 F,2 | F,2 G,6 | G,,2 A,,2 B,,2 C,2 | D,2 E,6 | E,2 D,2 C,B,, E,2 | %5
 D,C, D,2 C,B,, E,2 | D,C, C,2 B,,2 F,2 | F,,2 B,,6 | A,2 G,2 E,F, G,2 | A,,2 B,,6 | %10
 D,2 E,2 E,F, G,2 | ^A,2 z2 z4 | A,2 G,2 G,2 z2 | C,2 D,2 D,2 E,2 | G,,2 A,,2 A,,2 B,,2 | %15
 B,,2 E,6- | E,2 z2 z4 |] %17

